packages/katcn/src/icons/svg/wifi.svg

<svg width="24" height="25" viewBox="0 0 24 25" fill="none" xmlns="http://www.w3.org/2000/svg">
<path d="M12 21.112C10.9 21.112 10 20.212 10 19.112C10 18.012 10.9 17.112 12 17.112C13.1 17.112 14 18.012 14 19.112C14 20.212 13.1 21.112 12 21.112Z" fill="black"/>
<path d="M15.7 16.212C15.5 16.212 15.3 16.112 15.1 16.012C13.4 14.712 10.7 14.712 9 16.012C8.6 16.312 7.9 16.312 7.6 15.812C7.3 15.412 7.3 14.712 7.8 14.412C8.9 13.412 10.4 12.912 12 12.912C13.6 12.912 15.1 13.412 16.3 14.312C16.7 14.612 16.8 15.312 16.5 15.712C16.2 16.012 16 16.212 15.7 16.212Z" fill="black"/>
<path d="M18.8 13.112C18.6 13.112 18.3 13.012 18.1 12.812C16.4 11.312 14.2 10.512 11.9 10.512C9.60003 10.512 7.50003 11.412 5.80003 12.912C5.40003 13.312 4.80003 13.212 4.40003 12.812C4.00003 12.412 4.10003 11.812 4.50003 11.412C6.50003 9.612 9.20003 8.612 12 8.612C14.8 8.612 17.5 9.612 19.5 11.412C19.9 11.812 19.9 12.412 19.6 12.812C19.4 13.012 19.1 13.112 18.8 13.112Z" fill="black"/>
<path d="M2 10.212C1.7 10.212 1.5 10.112 1.3 9.91201C0.9 9.51201 0.9 8.91201 1.3 8.51201C4.2 5.81201 8 4.31201 12 4.31201C16 4.31201 19.8 5.81201 22.7 8.41201C23.1 8.81201 23.1 9.41201 22.7 9.81201C22.3 10.212 21.7 10.212 21.3 9.81201C18.8 7.61201 15.5 6.31201 12 6.31201C8.5 6.31201 5.2 7.61201 2.7 9.91201C2.5 10.112 2.2 10.212 2 10.212Z" fill="black"/>
</svg>

<svg xmlns="http://www.w3.org/2000/svg" fill="none" viewBox="0 0 24 25"><path fill="#000" d="M12 21.112c-1.1 0-2-.9-2-2s.9-2 2-2 2 .9 2 2-.9 2-2 2m3.7-4.9c-.2 0-.4-.1-.6-.2-1.7-1.3-4.4-1.3-6.1 0-.4.3-1.1.3-1.4-.2-.3-.4-.3-1.1.2-1.4 1.1-1 2.6-1.5 4.2-1.5s3.1.5 4.3 1.4c.4.3.5 1 .2 1.4-.3.3-.5.5-.8.5"/><path fill="#000" d="M18.8 13.112c-.2 0-.5-.1-.7-.3-1.7-1.5-3.9-2.3-6.2-2.3s-4.4.9-6.1 2.4c-.4.4-1 .3-1.4-.1s-.3-1 .1-1.4c2-1.8 4.7-2.8 7.5-2.8s5.5 1 7.5 2.8c.4.4.4 1 .1 1.4-.2.2-.5.3-.8.3"/><path fill="#000" d="M2 10.212c-.3 0-.5-.1-.7-.3-.4-.4-.4-1 0-1.4 2.9-2.7 6.7-4.2 10.7-4.2s7.8 1.5 10.7 4.1c.4.4.4 1 0 1.4s-1 .4-1.4 0a14.1 14.1 0 0 0-9.3-3.5c-3.5 0-6.8 1.3-9.3 3.6-.2.2-.5.3-.7.3"/></svg>
